X:718
T:Lannigan's ball
R:Jig
O:Ireland
B:Roche 1 n105
B:Kerr's First p36
B:O'Neill's 858
S:Richard Robinson's web page/abc file (=Roche?)
Z:Transcription:Richard Robinson(?), Chords:Mike Long
M:6/8
L:1/8
K:G
"Em"E2E G2A|B2A Bcd|"D"D2D F2G|AdB AFD|\
"Em"E2E G2A|B2A Bcd|"C"e2B c2A|"Em"BGE E3:|
|:"Em"e2f g2e|"D"fag fed|"Em/C"e2f g2e|"D"fdB BAB|\
"Em"e2f g2e|"D"fag fed|"C"e2B c2A|"Em"BGE E3:|
